source/svgs/bowtie/uE947-redeploy.svg

<svg xmlns="http://www.w3.org/2000/svg" viewBox="0 0 448 448" enable-background="new 0 0 448 448"><path d="M128 128h-128v-128h128v128zm160-128h-128v128h128v-128zm32 0v128h128v-128h-128zm-219.312 276.688l22.625 22.625 68.687-68.688v217.375h32v-217.375l68.688 68.688 22.625-22.625-107.313-107.313-107.312 107.313z"/></svg>

<svg xmlns="http://www.w3.org/2000/svg" viewBox="0 0 448 448"><path d="M128 128H0V0h128v128zM288 0H160v128h128V0zm32 0v128h128V0H320zM100.688 276.688l22.625 22.625L192 230.625V448h32V230.625l68.688 68.688 22.625-22.625L208 169.375 100.688 276.688z"/></svg>
